X: 3
T: The Sporting Pitchfork
R: jig
M: 6/8
L: 1/8
K: Gmaj
F3 E^DE | F^EF D>=EF | GFG A^GA | cAG FGA |B/^c/dB B>AG | ABA AB^c | dcA AGF | AGF G2 :|d2 e fed | f^ef d>=ef | gfg bag | fd^c d2 =c |B/^c/dB B>AG | A2 A AA/B/^c | dcA AGF | AGF G2 :|


Tune 1761	Setting 1761

